X:1
T:Pregiato Deus
T:Pregiato Deus
T:Francesca Caccini
T:Source : Primo libro delle Musische a 1 e 2 voci---Firenze---Z.Pignoni---1618. Editor : André Vierendeels (28/08/15).
T:Notes : Original clefs : C1, F4 Figures in BC are notated in original print See also part 1 : "Che i costei", p 2 : "Questa e colei" and p 4 :"Cosi dicea"
T:Sonetto 2, part 3
C:Francesca Caccini
%%score 1 2
L:1/8
Q:1/4=120
M:4/4
K:F
V:1 treble nm="Soprano" snm="S"
V:2 bass nm="MusicXML Part"
V:1
 z2 A2 A3 B | c4 cccc | d6 B2 | B/G/A/B/ A/G/F/E/ F/D/E/F/ G/A/B/G/ | %4
w: Pre- gia- to|De- us av- ven- tu-|ro- so|scor- * * * * * * * * * * * * * * *|
 A/B/c/d/ _e/d/c/4B/4A/4G/4 A/F/G/A/ B/TA/A/G/4A/4 | B4 z2 d2 | A3 B c4 | z GGA B4- | %8
w: |no dell'|An- gel no|se con di- ver-|
"^10" B2 ^F2 G>A G/TG/F/G/ | A4 z2 d2 | c3 B TA3 G | G4 G4 | c4 F2 z G/G/ | G8 | F8 | %15
w: * sa sor- * * * * *|te, ci-|fe- men bel- lo'il|Cie- lo,|El- la l'ha a-|dor-|no,|
 z2 A2 B/A/-A B/c/-c | dc/B/ TA>G F2 G2 | A>B c/TB/B/A/ =B/G/-G A/B/-B | c4 c4 | z2 G4 G z/ G/ | %20
w: ci fe- * * * * *|* * * * * * men|bel- * * * * * * lo'il _ _ _ _|Cie- lo,|el- la l'h'a-|
 G8 | F8 |] %22
w: dor-|no.|
V:2
 F,,4 D,4 |"^-natural""^11       10""^6" C,2 C,2 A,,4 | B,,4 ^F,,4 | G,,4 D,2 _E,2 | %4
 _E,4 F,2 F,,2 |"^14" B,,4 B,,4 |"^-natural""^6" D,2 D,2 A,,2 B,,2 | C,4 G,,4 |"^6" D,4 _E,4 | %9
"^#" D,2 D2 C2 B,2 |"^#6""^#""^4" A,2 G,2 D,2 D,2 |"^6" E,2 D,C, =B,,2 C,2 |"^6" A,,6 B,,2 | C,8 | %14
 F,,4 F,2 E,2 |"^-natural" D,2 C,2 B,,2 A,,2 | G,,4 D,2 E,2 | F,4 G,4 |"^6" A,2 G,F, E,2 F,2 | %19
 C,4 =B,,4 |"^11            10" C,4 C,4 | F,,8 |] %22

